X: 901
M: C
L: 1/8
K: G
V: 1
d |\
|: c |\
V: 2 clef=bass middle=d
z |\
g2g2 a2a2 | g2g2 g2g2 |\
g2g2 a2a2 | g2d2 G2G :|\
|: z |
g2g2 a2a2 | g2g2 g2g2 |\
g2g2 c'2c'2 | d'2d2 g2g :|

